X: 1
T: Rabbit Stew
T: Saut du Lapin (Rabbit's Jump)
C: Trad
R: Reel
M: 4/4
L: 1/8
K: G
Z: ABC transcription by Verge Roller
r: 32
|:  "G" BcBA GABc | "G" dBGB "D" A4 | "D" ABcB ABcd | "D" e2 f2  e2 d2|
"G" BcBA GABc | "G" dBGB "D" A4 | "D" ABcB ABcd | "C" .e2 .f2 "G" .g2 z2 :|
|: "G" gdBc d2 ed | "G" gdBc  d4 | "D" dDDd DDdd | "Am" edef "D" e2 d2 |
"G" gdBc  d2 ed | "G" gdBc  d4 | "D" dDDd DDdd | "C" .e2 .f2 "G" .g2 z2 :|
